X: 1
T: Marylou's Reel
C: J Duncan Keppie
Z: John Chambers <jc:trillian.mit.edu>
M: C|
L: 1/8
K: D
A2 \
|: "D"BA^GA F2F2 \
| BA^GA F2F2 \
| "A7"AGFG E2E2 \
| AGFG E2FE \
| "D"DCDF A,2A,2 \
| "Em"E^DEG B,2B,2 |
| "A7"CDEF GABc \
| "D"d2D2 D2A2 :|\
|: "D"^GABA FADA \
| FADA B,AA,A \
| "A6"^GABA =GAEA \
| GAEA CAA,A |
| "D"^GABA FADA \
| "A6"^GABA =GAEA \
| cBAG FEDC \
| D2F2 D4 :|
